icons/clinical_f.svg

<svg width="48" height="48" viewBox="0 0 48 48" fill="none" xmlns="http://www.w3.org/2000/svg">
<path d="M19 15V18H16V20H19V23H21V20H24V18H21V15H19Z" fill="black"/>
<path d="M17 26C16.4477 26 16 26.4477 16 27C16 27.5523 16.4477 28 17 28H31C31.5523 28 32 27.5523 32 27C32 26.4477 31.5523 26 31 26H17Z" fill="black"/>
<path d="M16 32C16 31.4477 16.4477 31 17 31H31C31.5523 31 32 31.4477 32 32C32 32.5523 31.5523 33 31 33H17C16.4477 33 16 32.5523 16 32Z" fill="black"/>
<path d="M17 36C16.4477 36 16 36.4477 16 37C16 37.5523 16.4477 38 17 38H31C31.5523 38 32 37.5523 32 37C32 36.4477 31.5523 36 31 36H17Z" fill="black"/>
<path fill-rule="evenodd" clip-rule="evenodd" d="M17 7C17 5.34315 18.3431 4 20 4H28C29.6569 4 31 5.34315 31 7H35C36.6569 7 38 8.34315 38 10V41C38 42.6569 36.6569 44 35 44H13C11.3431 44 10 42.6569 10 41V10C10 8.34315 11.3431 7 13 7H17ZM28 12C29.6569 12 31 10.6569 31 9H35C35.5523 9 36 9.44772 36 10V41C36 41.5523 35.5523 42 35 42H13C12.4477 42 12 41.5523 12 41V10C12 9.44772 12.4477 9 13 9H17C17 10.6569 18.3431 12 20 12H28ZM20 6C19.4477 6 19 6.44772 19 7V9C19 9.55228 19.4477 10 20 10H28C28.5523 10 29 9.55228 29 9V7C29 6.44772 28.5523 6 28 6H20Z" fill="black"/>
</svg>

<svg
  xmlns="http://www.w3.org/2000/svg"
  width="24"
  height="24"
  viewBox="0 0 24 24"
  fill="none"
  stroke="currentColor"
  stroke-width="2"
  stroke-linecap="round"
  stroke-linejoin="round"
>
  <path d="M19 15v3h-3v2h3v3h2v-3h3v-2h-3v-3z" />
  <path d="M17 26a1 1 0 1 0 0 2h14a1 1 0 1 0 0-2z" />
  <path d="M16 32a1 1 0 0 1 1-1h14a1 1 0 1 1 0 2H17a1 1 0 0 1-1-1" />
  <path d="M17 36a1 1 0 1 0 0 2h14a1 1 0 1 0 0-2z" />
  <path
    fill-rule="evenodd"
    d="M17 7a3 3 0 0 1 3-3h8a3 3 0 0 1 3 3h4a3 3 0 0 1 3 3v31a3 3 0 0 1-3 3H13a3 3 0 0 1-3-3V10a3 3 0 0 1 3-3zm11 5a3 3 0 0 0 3-3h4a1 1 0 0 1 1 1v31a1 1 0 0 1-1 1H13a1 1 0 0 1-1-1V10a1 1 0 0 1 1-1h4a3 3 0 0 0 3 3zm-8-6a1 1 0 0 0-1 1v2a1 1 0 0 0 1 1h8a1 1 0 0 0 1-1V7a1 1 0 0 0-1-1z"
    clip-rule="evenodd"
  />
</svg>
